src/assets/icons/arrow.svg

<?xml version="1.0" encoding="iso-8859-1"?>
<!-- Generator: Adobe Illustrator 19.0.0, SVG Export Plug-In . SVG Version: 6.00 Build 0)  -->
<svg version="1.1" id="Capa_1" xmlns="http://www.w3.org/2000/svg" xmlns:xlink="http://www.w3.org/1999/xlink" x="0px" y="0px"
	 viewBox="0 0 447.243 447.243" style="enable-background:new 0 0 447.243 447.243;" xml:space="preserve">
<g>
	<g>
		<path d="M420.361,192.229c-1.83-0.297-3.682-0.434-5.535-0.41H99.305l6.88-3.2c6.725-3.183,12.843-7.515,18.08-12.8l88.48-88.48
			c11.653-11.124,13.611-29.019,4.64-42.4c-10.441-14.259-30.464-17.355-44.724-6.914c-1.152,0.844-2.247,1.764-3.276,2.754
			l-160,160C-3.119,213.269-3.13,233.53,9.36,246.034c0.008,0.008,0.017,0.017,0.025,0.025l160,160
			c12.514,12.479,32.775,12.451,45.255-0.063c0.982-0.985,1.899-2.033,2.745-3.137c8.971-13.381,7.013-31.276-4.64-42.4
			l-88.32-88.64c-4.695-4.7-10.093-8.641-16-11.68l-9.6-4.32h314.24c16.347,0.607,30.689-10.812,33.76-26.88
			C449.654,211.494,437.806,195.059,420.361,192.229z"/>
	</g>
</g>
<g>
</g>
<g>
</g>
<g>
</g>
<g>
</g>
<g>
</g>
<g>
</g>
<g>
</g>
<g>
</g>
<g>
</g>
<g>
</g>
<g>
</g>
<g>
</g>
<g>
</g>
<g>
</g>
<g>
</g>
</svg>

<svg width="448" height="448" viewBox="0 0 448 448" fill="none" xmlns="http://www.w3.org/2000/svg">
<g clip-path="url(#clip0)">
<path d="M420.361 192.229C418.531 191.932 416.679 191.795 414.826 191.819H99.305L106.185 188.619C112.91 185.436 119.028 181.104 124.265 175.819L212.745 87.339C224.398 76.215 226.356 58.32 217.385 44.939C206.944 30.68 186.921 27.584 172.661 38.025C171.509 38.869 170.414 39.789 169.385 40.779L9.38501 200.779C-3.11899 213.269 -3.12999 233.53 9.36001 246.034C9.36801 246.042 9.37701 246.051 9.38501 246.059L169.385 406.059C181.899 418.538 202.16 418.51 214.64 405.996C215.622 405.011 216.539 403.963 217.385 402.859C226.356 389.478 224.398 371.583 212.745 360.459L124.425 271.819C119.73 267.119 114.332 263.178 108.425 260.139L98.825 255.819H413.065C429.412 256.426 443.754 245.007 446.825 228.939C449.654 211.494 437.806 195.059 420.361 192.229Z" fill="#A5167E"/>
</g>
<defs>
<clipPath id="clip0">
<rect width="447.243" height="447.243" fill="white"/>
</clipPath>
</defs>
</svg>
